src/lib/packages/icons/src/assets/line/home-dollar.svg

<svg width="24" height="24" viewBox="0 0 24 24" fill="none" xmlns="http://www.w3.org/2000/svg">
<path d="M20.208 8.14101L14.088 3.01003C12.879 1.99503 11.121 1.99503 9.91199 3.01003L3.79199 8.14101C2.83599 8.93401 2.25 9.52804 2.25 11.65V18C2.25 20.418 3.582 21.75 6 21.75H18C20.418 21.75 21.75 20.418 21.75 18V11.65C21.75 9.52804 21.164 8.93401 20.208 8.14101ZM20.25 18C20.25 19.577 19.577 20.25 18 20.25H6C4.423 20.25 3.75 19.577 3.75 18V11.65C3.75 10.124 4.00202 9.91506 4.74902 9.29506L10.875 4.15908C11.201 3.88608 11.601 3.74904 12 3.74904C12.399 3.74904 12.799 3.88608 13.125 4.15908L19.251 9.29506C19.998 9.91506 20.25 10.124 20.25 11.65V18ZM14.5 14.6131C14.5 15.2101 14.27 15.773 13.85 16.197C13.545 16.508 13.164 16.715 12.75 16.806V17C12.75 17.414 12.414 17.75 12 17.75C11.586 17.75 11.25 17.414 11.25 17V16.8051C10.335 16.6031 9.62204 15.837 9.51404 14.86C9.46804 14.448 9.765 14.077 10.177 14.032C10.578 13.986 10.958 14.283 11.004 14.695C11.046 15.075 11.356 15.361 11.725 15.361H12.276C12.465 15.361 12.645 15.284 12.782 15.145C12.924 15.001 13.001 14.8131 13.001 14.6131C13.001 14.2691 12.773 13.97 12.449 13.886L11.182 13.567C10.699 13.442 10.267 13.157 9.96497 12.762C9.66597 12.379 9.5 11.888 9.5 11.387C9.5 10.312 10.251 9.41401 11.25 9.19301V9.00002C11.25 8.58602 11.586 8.25002 12 8.25002C12.414 8.25002 12.75 8.58602 12.75 9.00002V9.19497C13.665 9.39697 14.378 10.163 14.486 11.14C14.532 11.552 14.235 11.923 13.823 11.968C13.423 12.008 13.042 11.7171 12.996 11.3051C12.954 10.9251 12.644 10.6391 12.275 10.6391H11.724C11.325 10.6391 10.999 10.974 10.999 11.387C10.999 11.557 11.053 11.72 11.151 11.846C11.255 11.982 11.392 12.073 11.55 12.114L12.817 12.433C13.81 12.688 14.5 13.5841 14.5 14.6131Z" fill="currentColor"/>
</svg>

<svg xmlns="http://www.w3.org/2000/svg" width="24" height="24" fill="none"><path fill="currentColor" d="m20.208 8.141-6.12-5.131a3.244 3.244 0 0 0-4.176 0l-6.12 5.131c-.956.793-1.542 1.387-1.542 3.509V18c0 2.418 1.332 3.75 3.75 3.75h12c2.418 0 3.75-1.332 3.75-3.75v-6.35c0-2.122-.586-2.716-1.542-3.509ZM20.25 18c0 1.577-.673 2.25-2.25 2.25H6c-1.577 0-2.25-.673-2.25-2.25v-6.35c0-1.526.252-1.735.999-2.355l6.126-5.136a1.75 1.75 0 0 1 2.25 0l6.126 5.136c.747.62.999.829.999 2.355V18Zm-5.75-3.387c0 .597-.23 1.16-.65 1.584a2.194 2.194 0 0 1-1.1.609V17a.75.75 0 0 1-1.5 0v-.195a2.236 2.236 0 0 1-1.736-1.945.749.749 0 1 1 1.49-.165c.042.38.352.666.721.666h.551a.708.708 0 0 0 .506-.216.751.751 0 0 0 .219-.532.747.747 0 0 0-.552-.727l-1.267-.319a2.245 2.245 0 0 1-1.682-2.18c0-1.075.751-1.973 1.75-2.194V9a.75.75 0 0 1 1.5 0v.195a2.236 2.236 0 0 1 1.736 1.945.75.75 0 0 1-.663.828.76.76 0 0 1-.827-.663.735.735 0 0 0-.721-.666h-.551a.738.738 0 0 0-.725.748.75.75 0 0 0 .551.727l1.267.319a2.244 2.244 0 0 1 1.683 2.18Z"/></svg>
